X:1
T:Persia
T:D Major         Jacob French, 1789
T:Isaac Watts, 1719 (Psalm 133, Part 3)             668. 668. 
T:Transcribed from The New American Melody, 1789.
%%score [ 1 2 3 4 ]
L:1/8
Q:1/4=150
M:2/2
K:D
V:1 treble nm="Tr." snm="Tr."
V:2 treble nm="C." snm="C."
V:3 treble-8 nm="T." snm="T."
V:4 bass nm="B." snm="B."
V:1
"^1. How pleasant 'tis     to        see   Kindred and  friends agree;  Each in their proper station move,     And each fulfil their part,\n" A4 F2 G2 | %1
 A4 A4 | A8 | d4 d2 d2 | A4 ^G4 | A8 | d4 d2 d2 | d2 A2 e2 cB | (A3 B A4) | A4 d2 A2 | B4 A4 | A8 | %12
"^1. With  sym–pa–thi – zing     heart,     In    all         the     cares ________________  of life and love!\n" d4 d2 A2 | %13
 B4 d4 | c8 | d4 (A4 | d2) c2 (d2 A2 | B8 | A2) B2 A2 A2 | A8 |] %20
V:2
"^2.  Tis  like the oint – ment      shed  On Aaron's sa  –  cred head,  Divinely  rich,  divinely  sweet;      The oil through all the room\n" F4 D2 E2 | %1
 (F D3) (E C3) | D8 | F4 F2 F2 | F6 E2 | E8 | F4 F2 F2 | F2 E2 D2 E2 | (F3 E F4) | A4 A2 F2 | %10
 (G2 F2) E4 | F8 | %12
"^2.  Diffused  a choice per   –    fume,    Ran through  his    robes, ______________ and blessed his feet.\n" F4 D2 D2 | %13
 E4 (3(F2 E2 D2) | E8 | F4 F4- | F2 F>E (D4 | E2 F2 E4 | F2) E2 D2 [CE]2 | [DF]8 |] %20
V:3
"^3. Like fruitful  showers  of    rain, That water all the  plain, Descending from the neighboring hills; Such streams of pleasure roll\n" d4 A2 G2 | %1
 F4 E4 | D8 | A4 A2 A2 | (d3 c) B4 | A8 | A4 A2 A2 | A2 A2 B2 c2 | (d3 e d4) | e4 f2 d2 | %10
 (e2 d2) c4 | d8 | %12
"^3. Through every friend  –  ly    soul,  Where love,   like     heav'n     –         –         –    ly  dew,  distils.\n" A4 B2 A2 | %13
 G4 (F3 G) | A8 | A4 (d4 | A2) A2 (B2 A2 | G2 F2 G3 c | B2) A2 F2 E2 | D8 |] %20
V:4
 D,4 D,2 C,2 | D,4 A,,4 | D,8 | D,4 D,2 D,2 | D,4 E,4 | A,,8 | D,4 D,2 D,2 | D,2 C,2 B,,2 A,,2 | %8
 (D,3 C, D,4) | [A,,A,]4 D,2 D,2 | [G,,G,]4 [A,,A,]4 | D,8 | D,4 G,2 F,2 | E,4 D,4 | A,,8 | %15
 D,4 D,4- | D,2 F,2 (G,2 F,2 | E,2 D,2 E,3 G, | F,2) G,2 A,2 A,,2 | D,8 |] %20

